X:1
T:Title
%%score { ( 1 4 ) | ( 2 3 ) }
L:1/8
M:4/4
K:Bb
V:1 treble nm="Grand Piano"
V:4 treble 
V:2 bass 
V:3 bass 
V:1
 z4 z2[Q:1/4=110] [B,D]>[CE] | [DF]2 [_D=E]2 [=DF]2 G>A | [FB]2 [FA]>[EG] [DF]2 [B,D]>E | %3
 [DF]2 D>F G2 B2 |[M:3/4] [EA]6 |[M:1/4] z2 |[M:4/4] [EAc]2 [D_A=B]2 [E=Ac]2 F>c | %7
 B2 A2 [DB]2 [DG]2 | [CFA]2 [A,C]2 [C=EA]2 [B,EG]2 |[M:3/4] F2 (3FFF F2 |[M:1/4] F>F | %11
[M:4/4] [Ec]2 [A,EA]2 [EG]2 [EF]2 | [DB]2 [DF]4 B>B | [GB]2 [EG]2 [GB]2 [Gc]2 |[M:3/4] [^Fd]6 | %15
[M:1/4] [Fd][Fd] |[M:4/4] [Gc]2 [GB]2 [_DA]2 [B,DG][B,DG] | %17
[M:9/8] [B,DF]2 [B,D]- [B,D] [B,DB]2- [B,DB][EB][EBc] | %18
[M:4/4] [FBd]2 [DFB]2 [CE^F]2 [EFc]2[Q:1/4=108][Q:1/4=107][Q:1/4=105][Q:1/4=104][Q:1/4=102][Q:1/4=100][Q:1/4=99][Q:1/4=97][Q:1/4=95][Q:1/4=94][Q:1/4=92][Q:1/4=91][Q:1/4=89][Q:1/4=87][Q:1/4=86][Q:1/4=84] | %19
[M:3/4] [DFB]6[K:bass] |] %20
V:2
 z4 z2 [B,,F,]2 | [B,,B,]2 [B,,B,]2 [B,,B,]2 [E,B,=E]2 | [D,B,]2 [E,B,]2 [B,,B,]2 z z/ C/ | %3
 B,,2 F,2 [B,D]2 [F,D]2 |[M:3/4] F,,2 F,>A,[K:treble] C2 |[M:1/4] A>B | %6
[M:4/4][K:bass] F,,2 F,2 F,2 [F,A,E]2 | [G,D]2 [D,^F,D]2 [G,,G,]2 z z/[K:treble] B/ | %8
 C,2 C,2 C,2 C,2 |[M:3/4] F,2 E,2 C,2 |[M:1/4] [F,A,]2 |[M:4/4] F,,2 F,2 [G,,G,]2 [A,,A,]2 | %12
 [B,,B,]2 [B,,B,]2 [F,,F,]2 [D,,D,]2 | [E,,E,]2 [E,,E,]2 [E,,E,]2 [E,E]2 | %14
[M:3/4] [D,D]2 (3D,^F,A, D2 |[M:1/4] [D,A,][D,A,] |[M:4/4] [E,G,]2 [E,G,]2 [=E,A,]2 [=E,,E,]2 | %17
[M:9/8] [F,,F,]2 [F,,F,]- [F,,F,] [G,,G,]2- [G,,G,][G,,G,][^F,,^F,] | %18
[M:4/4] [F,,F,]2 [F,,F,]2 [A,,A,][G,,G,] [F,,F,]2 |[M:3/4] [B,,B,]2 F,,2 B,,,2 |] %20
V:3
 x8 | x8 | z4 z2 [B,,F,]2 | x8 |[M:3/4] x4[K:treble] x2 |[M:1/4] x2 |[M:4/4][K:bass] x8 | %7
 z4 z2 [B,,B,]2[K:treble] | x8 |[M:3/4] x6 |[M:1/4] x2 |[M:4/4] x8 | x8 | x8 |[M:3/4] x6 | %15
[M:1/4] x2 |[M:4/4] x8 |[M:9/8] x9 |[M:4/4] x8 |[M:3/4] x6 |] %20
V:4
 x8 | x8 | x8 | x8 |[M:3/4] x6 |[M:1/4] x2 |[M:4/4] x8 | x8 | x8 |[M:3/4] A,6 |[M:1/4] x2 | %11
[M:4/4] x8 | z4 z2 F2 | x8 |[M:3/4] x6 |[M:1/4] x2 |[M:4/4] x8 |[M:9/8] x9 |[M:4/4] x8 | %19
[M:3/4] z2[K:bass] F,2 B,,2 |] %20

